X: 33
T:Soldier's Joy
M:4/4
L:1/8
R:Reel
K:D
FG|"D"AFDF AFDF|A2d2 "G"d2cB|"D"AFDF "Bm"AFDF|"Em"G2E2 "A7"E2FG|!
"D"AFDF AFDF|A2d2 "G"d2de|"D"fafd "A7"egec|"D"d2"G"d2 "D"d2z2:||!
de|"D"f2fd "Bm"fagf|e2ec "A7"egfe|"D"f2fd fagf|"E7"edcB "A7"A2de|!
"D"f2fd fagf|e2ec "A7"egfe|"D"fafd ege"A7"c|"D"d2"G"d2 "D"d2z2:||
% <A name="D1X034">
